X: 18810
T: If Young Men Could Swim
R: waltz
M: 3/4
K: Edorian
B2|B2 E2 B2|B4 B2|A2 D2 A2|F2 E2 ED|
E2 B2 A2|B4 A2|B2 e2 f2|ed B2 BA|
B2 e2 f2|g2 f2 g2|e2 d2 e2|B2 A2 BA|
GF GA BA|GF GA Bd|e2 E2 B2|E4||

